assets/images/icon--youtube.svg

<?xml version="1.0" encoding="UTF-8" standalone="no"?>
<svg width="20px" height="15px" viewBox="0 0 20 15" version="1.1" xmlns="http://www.w3.org/2000/svg" xmlns:xlink="http://www.w3.org/1999/xlink">
    <!-- Generator: Sketch 3.6.1 (26313) - http://www.bohemiancoding.com/sketch -->
    <title>icon--youtube</title>
    <desc>Created with Sketch.</desc>
    <defs></defs>
    <g id="assets" stroke="none" stroke-width="1" fill="none" fill-rule="evenodd">
        <path d="M7.8975868,10.5818981 L7.8966709,4.98909278 L13.2751179,7.79523902 L7.8975868,10.5818981 L7.8975868,10.5818981 Z M19.7063568,4.02021233 C19.7063568,4.02021233 19.5118753,2.64853297 18.9150236,2.0444905 C18.1581046,1.25169573 17.3096741,1.24775933 16.9205941,1.20136048 C14.1351627,1 9.95686942,1 9.95686942,1 L9.94821714,1 C9.94821714,1 5.77002128,1 2.98449242,1.20136048 C2.59539296,1.24775933 1.74727424,1.25169573 0.990082444,2.0444905 C0.393269703,2.64853297 0.199060999,4.02021233 0.199060999,4.02021233 C0.199060999,4.02021233 0,5.63101822 0,7.24180462 L0,8.75192053 C0,10.3626874 0.199060999,11.9734738 0.199060999,11.9734738 C0.199060999,11.9734738 0.393269703,13.3451727 0.990082444,13.9492152 C1.74727424,14.7420294 2.74189718,14.7169495 3.18489803,14.8000426 C4.77732756,14.9527437 9.95256277,15 9.95256277,15 C9.95256277,15 14.1351627,14.9937057 16.9205941,14.7923647 C17.3096741,14.7459463 18.1581046,14.7420294 18.9150236,13.9492152 C19.5118753,13.3451727 19.7063568,11.9734738 19.7063568,11.9734738 C19.7063568,11.9734738 19.9051255,10.3626874 19.9051255,8.75192053 L19.9051255,7.24180462 C19.9051255,5.63101822 19.7063568,4.02021233 19.7063568,4.02021233 L19.7063568,4.02021233 Z" id="icon--youtube" fill="#FFFFFF"></path>
    </g>
</svg>

<svg width="20" height="15" viewBox="0 0 20 15" xmlns="http://www.w3.org/2000/svg"><title>icon--youtube</title><path d="M7.898 10.582l-.001-5.593 5.378 2.806-5.377 2.787zM19.706 4.02s-.194-1.371-.791-1.976c-.757-.792-1.605-.796-1.994-.843C14.135 1 9.957 1 9.957 1h-.009s-4.178 0-6.964.201c-.389.047-1.237.05-1.994.843C.393 2.65.2 4.02.2 4.02S0 5.631 0 7.242v1.51c0 1.61.2 3.221.2 3.221s.193 1.372.79 1.976c.757.793 1.752.768 2.195.851 1.592.153 6.768.2 6.768.2s4.182-.006 6.968-.208c.389-.046 1.237-.05 1.994-.843.597-.604.791-1.976.791-1.976s.2-1.61.2-3.221v-1.51c0-1.611-.2-3.222-.2-3.222z" fill="#FFF" fill-rule="evenodd"/></svg>
